assets/features/channel/other/Etisalat.svg

<svg width="80" height="80" viewBox="0 0 80 80" fill="none" xmlns="http://www.w3.org/2000/svg">
<rect x="0.5" y="0.5" width="79" height="79" rx="7.5" fill="white"/>
<rect x="0.5" y="0.5" width="79" height="79" rx="7.5" stroke="#EEEEEE"/>
<g clip-path="url(#clip0_2497_22902)">
<path d="M60.4108 49.6774C62.4706 46.0528 63.6526 41.9707 64.074 37.9707H57.7775C57.6137 40.4223 57.1455 42.9208 56.2912 45.1613C55.4837 47.3431 54.4186 49.302 53.061 50.9091C50.9778 53.302 48.368 54.8387 45.3719 54.8387C41.8375 54.8387 39.4032 53.302 38.502 50.7214H31.7726C30.6841 53.3959 28.1094 54.7097 24.8324 54.7097C21.2629 54.7097 17.588 52.1056 17.1667 46.7918H38.2211C38.7595 44.1759 40.7959 42.217 44.0962 40.9149C44.0962 40.9149 47.1508 39.7888 50.182 38.4633C54.3952 36.5044 57.5435 32.9736 57.5435 28.5161C57.5435 22.1935 52.2184 20.0117 47.3615 20.0117C41.2757 20.0117 36.7582 23.261 36.7582 28.434C36.7582 31.4721 38.3967 34.3226 40.7959 37.2082C39.5202 37.6657 38.2796 38.2522 37.1561 38.9912C35.2134 33.5601 30.7309 30.0293 24.6452 30.0293C16.6166 30.0293 10.8 36.1525 10.8 44.7742C10.8 52.9736 16.0081 60 25.0899 60C29.268 60 32.4162 58.4633 34.6048 56.2932C36.8518 58.5924 40.1756 60 44.2718 60C49.3043 60 53.4238 57.9824 56.5721 54.8504L60.598 59.3431H69.1766L60.4108 49.6774ZM47.4434 24.7976C49.749 24.7976 51.6449 26.1114 51.6449 28.7273C51.6449 31.1202 50.2288 33.4663 47.0104 34.9091L46.9519 34.8387C45.0676 32.8211 43.2887 30.4751 43.2887 28.2346C43.2887 26.088 45.2315 24.7976 47.4434 24.7976ZM24.692 34.9677C28.3552 34.9677 31.714 37.6657 31.9013 42.1583H17.1784C17.6934 36.7155 21.7544 34.9677 24.692 34.9677Z" fill="#E30613"/>
</g>
<defs>
<clipPath id="clip0_2497_22902">
<rect width="58.4" height="40" fill="white" transform="translate(10.8 20)"/>
</clipPath>
</defs>
</svg>

<svg xmlns="http://www.w3.org/2000/svg" width="80" height="80" fill="none" viewBox="0 0 80 80"><rect width="79" height="79" x=".5" y=".5" fill="#fff" rx="7.5"/><rect width="79" height="79" x=".5" y=".5" stroke="#eee" rx="7.5"/><g clip-path="url(#a)"><path fill="#e30613" d="M60.41 49.677c2.06-3.624 3.243-7.706 3.664-11.706h-6.296c-.164 2.451-.633 4.95-1.487 7.19-.807 2.182-1.872 4.141-3.23 5.748-2.083 2.393-4.693 3.93-7.69 3.93-3.534 0-5.968-1.537-6.869-4.118h-6.73c-1.088 2.675-3.663 3.989-6.94 3.989-3.57 0-7.244-2.604-7.665-7.918H38.22c.539-2.616 2.575-4.575 5.875-5.877 0 0 3.055-1.126 6.086-2.452 4.213-1.959 7.361-5.49 7.361-9.947 0-6.322-5.325-8.504-10.181-8.504-6.086 0-10.604 3.249-10.604 8.422 0 3.038 1.639 5.889 4.038 8.774-1.276.458-2.516 1.044-3.64 1.783-1.943-5.43-6.425-8.962-12.51-8.962-8.03 0-13.846 6.124-13.846 14.745C10.8 52.974 16.008 60 25.09 60c4.178 0 7.326-1.537 9.515-3.707 2.247 2.3 5.57 3.707 9.667 3.707 5.032 0 9.152-2.018 12.3-5.15l4.026 4.493h8.579zm-12.967-24.88c2.306 0 4.202 1.314 4.202 3.93 0 2.393-1.416 4.74-4.635 6.182l-.058-.07c-1.884-2.018-3.663-4.364-3.663-6.604 0-2.147 1.942-3.437 4.154-3.437m-22.751 10.17c3.663 0 7.022 2.699 7.21 7.191H17.177c.515-5.443 4.576-7.19 7.514-7.19"/></g><defs><clipPath id="a"><path fill="#fff" d="M10.8 20h58.4v40H10.8z"/></clipPath></defs></svg>
